X: 66
T: JIG: Tá an Coileach ag Fógairt an Lae
T: When the Cock Crows It Is Day
C: C: Trad.; S: Séamus Begley; Séamus Ennis
C: Set Leaders: Tania, Anton, Sophie
Z: Anton Zille ed., Oleg Naumov arr.; JACKB at The Session
N: https://thesession.org/members/26966/sets/92425
R: Jig
M: 6/8
L: 1/8
Q: 3/8=116
K: Gmaj
|:D|"G"GAB BAG|"D"(d3 d2)B|"G"GAB BAG|"D"A3 ABA|
"G"GAB BAG|"C"Bcd e/f/ge|"C"dBG "D"AFD|1 "G"G3 G2:|2 "G"G3 GBd||
|:"G"gdd gdB|"C"c3 c2d|"G"gdd gdB|"D"A3 ABd|
"G"gdd gdB|"C"c2d e/f/ge|"C"dBG "D"AFD|1 "G"G3 GBd:|2 "G"G3 G2||

